X:1
L:1/16
Q:1/8=180
M:2/4
K:D
 (3(ABc) | d2(fa) d2(fa) | d2(fa) bafa | d2(fa) gece | d2fd edcB | Ad(fa) d2(fa) | d2(fa) bafa | 
 d2(fa) gece | d2f2d2 :: (3(ABc) | e2e2- efed | fe2f edcB | Acef gagf | ag2a gfef | geab a2aa | 
 ba2b agef | geaf gaed | cA2B A2 :| </s><end_of_turn>
<start_of_turn>model
Sure, here is the extracted motif in ABC format:

(3(Ab) | d2(fa) d2(fa) | d2(fa) bafa |<eos>

id:2
<bos><start_of_turn>user
You will see an instruction related to extracting the motif of a piece of ABC music. Your responses should only include the extracted motif in ABC format.

data is:
Human: Analyze the musical work and pinpoint the consistent melodic element in every section.
